images/header/logo_mobile.svg

<?xml version="1.0" encoding="UTF-8"?>
<svg width="133px" height="18px" viewBox="0 0 133 18" version="1.1" xmlns="http://www.w3.org/2000/svg" xmlns:xlink="http://www.w3.org/1999/xlink">
    <!-- Generator: Sketch 49.3 (51167) - http://www.bohemiancoding.com/sketch -->
    <title>logo_18</title>
    <desc>Created with Sketch.</desc>
    <defs></defs>
    <g id="logo" stroke="none" stroke-width="1" fill="none" fill-rule="evenodd">
        <g id="logo_18" fill="#000105" fill-rule="nonzero">
            <path d="M105.675,1.155 L110.31,1.155 C111.567037,1.1241272 112.823859,1.22467301 114.06,1.455 C114.925667,1.65785907 115.751817,2.00251076 116.505,2.475 C117.222263,2.93562619 117.849941,3.52264476 118.3575,4.2075 C118.864184,4.88628645 119.24985,5.64746957 119.4975,6.4575 C119.755572,7.29559109 119.884549,8.1680867 119.88,9.045 C119.89425,10.0703927 119.710912,11.0889363 119.34,12.045 C119.014333,12.9000516 118.542285,13.6918748 117.945,14.385 C117.420178,15.0109962 116.790872,15.5413381 116.085,15.9525 C115.585514,16.2251621 115.053889,16.434285 114.5025,16.575 C113.32003,16.8684148 112.105822,17.0145228 110.8875,17.01 L105.6375,17.0101019 L105.675,1.155 Z M108.5175,14.46 L110.4,14.46 C111.552724,14.5063662 112.703612,14.3306775 113.79,13.9425 C114.755007,13.5673215 115.569502,12.8846214 116.1075,12 C116.647093,11.0940369 116.920055,10.0541834 116.895,9 C116.920506,7.98860702 116.660578,6.99048566 116.145,6.12 C115.654206,5.30310954 114.919811,4.6605138 114.045,4.2825 C112.899313,3.83603142 111.673559,3.63173911 110.445,3.6825 L108.5175,3.6825 L108.5175,14.46 Z M102.7575,9.21 C102.760429,10.4563454 102.480932,11.6871564 101.94,12.81 C101.312301,14.2069608 100.290524,15.3903459 99,16.215 C97.619968,17.0407558 96.0325289,17.4545309 94.425,17.4075 C91.495,17.4075 89.265,16.4275 87.735,14.4675 C86.5380301,12.9449655 85.9023397,11.0564353 85.935,9.12 C85.9209497,7.71618091 86.2450826,6.32961235 86.88,5.0775 C87.798574,3.25981904 89.3965461,1.87742497 91.3275,1.23 C92.3141111,0.916525251 93.3449011,0.764566031 94.38,0.78 C95.5916521,0.751167018 96.7963813,0.970672765 97.92,1.425 C98.8922659,1.82500128 99.770829,2.42262845 100.5,3.18 C101.212584,3.93743477 101.779544,4.81965557 102.1725,5.7825 C102.585584,6.88191731 102.781699,8.05096765 102.75,9.225 L102.7575,9.21 Z M99.81,9.1725 C99.8251076,8.12975896 99.5829659,7.09936877 99.105,6.1725 C98.6536332,5.29637909 97.9476922,4.57736513 97.08,4.11 C96.2304085,3.62979087 95.2733415,3.37182133 94.2975,3.36 C93.3400305,3.36763564 92.4013051,3.62623769 91.575,4.11 C90.7358738,4.5753424 90.0465201,5.26989871 89.5875,6.1125 C89.1078845,7.01179711 88.8652561,8.01844702 88.8825,9.0375 C88.8605775,10.0792037 89.0976719,11.1100489 89.5725,12.0375 C90.0144884,12.8783947 90.6819207,13.5795881 91.5,14.0625 C92.3516255,14.564154 93.3241672,14.8234985 94.3125,14.8125 C95.791094,14.8483771 97.2178267,14.2668137 98.25,13.2075 C99.2980115,12.1373129 99.8617979,10.6844788 99.81,9.1875 L99.81,9.1725 Z M84.1575,3.1725 L81.9075,5.055 C81.5057638,4.56611585 80.990899,4.18254158 80.4075,3.9375 C79.8142891,3.67693621 79.172905,3.54405983 78.525,3.5475 C77.6094631,3.54851433 76.7108789,3.79452441 75.9225,4.26 C75.0999402,4.73487113 74.4329433,5.43834434 74.0025,6.285 C73.5396221,7.19234812 73.305335,8.19901017 73.32,9.2175 C73.3017568,10.1977919 73.5286208,11.1671197 73.98,12.0375 C74.4133737,12.8546138 75.0787968,13.5252559 75.8925,13.965 C76.6965772,14.4162823 77.60294,14.6538475 78.525,14.655 C79.9569976,14.7030529 81.3113564,14.0045786 82.1025,12.81 L84.5625,14.5875 C83.9406775,15.4424231 83.1193544,16.1324375 82.17,16.5975 C81.0870024,17.1231657 79.8933807,17.3804117 78.69,17.3475 C77.0403578,17.4055157 75.4116826,16.9637081 74.0175,16.08 C72.7725403,15.258829 71.7826124,14.1052123 71.16,12.75 C70.6132175,11.5918939 70.3338272,10.3256661 70.3425,9.045 C70.3255641,7.5604255 70.7034608,6.09801722 71.4375,4.8075 C72.1272766,3.57934233 73.1418423,2.56477658 74.37,1.875 C75.6556406,1.16926411 77.1036525,0.812432597 78.57,0.84 C79.4549698,0.8253696 80.3364427,0.954550969 81.18,1.2225 C81.8699903,1.43898879 82.5226088,1.76023902 83.115,2.175 C83.5063863,2.45837507 83.8571419,2.79399016 84.1575,3.1725 Z M68.0475,2.4225 L66,4.5 C65.7008478,4.08668116 65.2970053,3.76050074 64.83,3.555 C64.3425809,3.34426519 63.8159631,3.2394529 63.285,3.2475 C62.5611693,3.19941519 61.8444319,3.41523572 61.2675,3.855 C60.8122719,4.21835652 60.5517595,4.77263821 60.5625,5.355 C60.5558836,5.70833971 60.6608618,6.05476773 60.8625,6.345 C61.1054488,6.67132078 61.428308,6.92960818 61.8,7.095 C62.13,7.245 62.8125,7.4925 63.8625,7.845 C64.6181612,8.06569935 65.35139,8.35698204 66.0525,8.715 C66.6864535,9.07577944 67.2181447,9.5919845 67.5975,10.215 C67.999334,10.8948212 68.1971965,11.6758577 68.1675,12.465 C68.2105351,13.8187064 67.6631211,15.1242889 66.6675,16.0425 C65.449257,17.0480141 63.8939663,17.5521428 62.3175,17.4525 C61.2884361,17.4768773 60.2659136,17.282598 59.3175,16.8825 C58.5038276,16.5409777 57.7725066,16.0295644 57.1725,15.3825 L59.2875,13.335 C59.6479525,13.8558291 60.1325658,14.2785769 60.6975,14.565 C61.2439338,14.8404374 61.8480875,14.9818351 62.46,14.9775 C63.2075654,15.0019199 63.936578,14.7419411 64.5,14.25 C64.9615258,13.8871449 65.2366314,13.3369337 65.25,12.75 C65.2575491,12.3744151 65.1502686,12.0054748 64.9425,11.6925 C64.731987,11.3834953 64.4417098,11.137278 64.1025,10.98 C63.885,10.875 63.2625,10.65 62.2425,10.305 C61.2225,9.96 60.54,9.705 60.2175,9.555 C59.689579,9.3150501 59.2073983,8.98513697 58.7925,8.58 C58.4290567,8.20761996 58.1434921,7.76652475 57.9525,7.2825 C57.7516819,6.76873533 57.6498914,6.22161151 57.6525,5.67 C57.6324835,4.49628705 58.0804518,3.36287308 58.8975,2.52 C60.0892295,1.30652075 61.7439638,0.66210273 63.4425,0.75 C64.33499,0.732580073 65.2228324,0.882673776 66.06,1.1925 C66.797599,1.48031488 67.4725126,1.90818468 68.0475,2.4525 L68.0475,2.4225 Z M55.02,2.4225 L52.9875,4.5 C52.6883478,4.08668116 52.2845053,3.76050074 51.8175,3.555 C51.3214448,3.34882257 50.7868821,3.25162936 50.25,3.27 C49.5261693,3.22191519 48.8094319,3.43773572 48.2325,3.8775 C47.7772719,4.24085652 47.5167595,4.79513821 47.5275,5.3775 C47.5208836,5.73083971 47.6258618,6.07726773 47.8275,6.3675 C48.0704488,6.69382078 48.393308,6.95210818 48.765,7.1175 C49.095,7.2675 49.7775,7.515 50.8275,7.8675 C51.5831612,8.08819935 52.31639,8.37948204 53.0175,8.7375 C53.6514535,9.09827944 54.1831447,9.6144845 54.5625,10.2375 C54.964334,10.9173212 55.1621965,11.6983577 55.1325,12.4875 C55.1700572,13.8478888 54.6078517,15.1560448 53.595,16.065 C52.376757,17.0705141 50.8214663,17.5746428 49.245,17.475 C48.2159361,17.4993773 47.1934136,17.305098 46.245,16.905 C45.4313276,16.5634777 44.7000066,16.0520644 44.1,15.405 L46.215,13.3575 C46.9352713,14.3965614 48.1232594,15.0116191 49.3875,15 C50.1195464,15.0371878 50.839879,14.8050807 51.4125,14.3475 C51.8723602,13.9832892 52.1470475,13.4339147 52.1625,12.8475 C52.1700491,12.4719151 52.0627686,12.1029748 51.855,11.79 C51.6457157,11.4827678 51.3583628,11.2368351 51.0225,11.0775 C50.7975,10.9725 50.1825,10.7475 49.155,10.4025 C48.1275,10.0575 47.4525,9.8025 47.13,9.6525 C46.602079,9.4125501 46.1198983,9.08263697 45.705,8.6775 C45.3415567,8.30511996 45.0559921,7.86402475 44.865,7.38 C44.6641819,6.86623533 44.5623914,6.31911151 44.565,5.7675 C44.5449835,4.59378705 44.9929518,3.46037308 45.81,2.6175 C46.9983557,1.35198727 48.680855,0.669670813 50.415,0.75 C51.30749,0.732580073 52.1953324,0.882673776 53.0325,1.1925 C53.771055,1.47842287 54.446316,1.90651288 55.02,2.4525 L55.02,2.4225 Z M31.3725,1.155 L41.8725,1.155 L41.8725,3.705 L34.1625,3.705 L34.1625,7.6275 L41.3325,7.6275 L41.3325,10.1625 L34.1625,10.1625 L34.1625,14.46 L42.2325,14.46 L42.2325,17.01 L31.3725,17.01 L31.3725,1.155 Z M19.9875,10.32 L19.9875,17.01 L17.145,17.01 L17.145,1.155 L22.29,1.155 C23.1685757,1.13830217 24.0469271,1.19853198 24.915,1.335 C25.5673456,1.45790952 26.1875963,1.71315669 26.7375,2.085 C27.2950758,2.46141906 27.7428057,2.9790259 28.035,3.585 C28.3502012,4.24765563 28.5092765,4.97375737 28.5,5.7075 C28.5153178,6.46036294 28.3507605,7.20601297 28.02,7.8825 C27.7079168,8.50313832 27.2269757,9.0230747 26.6325,9.3825 C26.097652,9.69937677 25.5069755,9.91069636 24.8925,10.005 L29.1075,16.98 L25.7025,16.98 L22.05,10.32 L19.9875,10.32 Z M19.9875,7.875 L21.8025,7.875 C22.5224273,7.90151779 23.2432374,7.85882172 23.955,7.7475 C24.4225335,7.63159207 24.8405288,7.36870195 25.1475,6.9975 C25.4350412,6.63037542 25.5837776,6.17354232 25.5675,5.7075 C25.5784884,5.25733901 25.4385628,4.81644114 25.17,4.455 C24.8871643,4.08864006 24.4919614,3.82517145 24.045,3.705 C23.4718333,3.57669414 22.8843715,3.52374694 22.2975,3.5475 L19.9875,3.5475 L19.9875,7.875 Z M0,1.155 L4.6425,1.155 C5.89954733,1.12374259 7.15640994,1.2242916 8.3925,1.455 C9.26119829,1.65573916 10.0901573,2.00050501 10.845,2.475 C11.5645415,2.93543156 12.1947172,3.52240975 12.705,4.2075 C13.211684,4.88628645 13.5973501,5.64746957 13.845,6.4575 C14.0969835,7.29677297 14.2233529,8.16872176 14.22,9.045 C14.2484758,10.997943 13.5630795,12.894117 12.2925,14.3775 C11.7651133,15.0038462 11.1332861,15.5341751 10.425,15.945 C9.92755303,16.216386 9.39856958,16.4254604 8.85,16.5675 C7.67268592,16.8620675 6.46360537,17.0106837 5.25,17.01 L0,17.0100023 L0,1.155 Z M2.8425,14.46 L4.7325,14.46 C5.8828034,14.5069018 7.03133829,14.3311836 8.115,13.9425 C9.08192089,13.5672678 9.89879816,12.8847801 10.44,12 C10.9668708,11.0903166 11.2267997,10.050601 11.19,9 C11.2155058,7.98860702 10.9555783,6.99048566 10.44,6.12 C9.95038763,5.30494165 9.21899523,4.6626795 8.3475,4.2825 C7.19936302,3.83542802 5.97103748,3.63113271 4.74,3.6825 L2.8425,3.6825 L2.8425,14.46 Z M121.8825,1.155 L132.3825,1.155 L132.3825,3.705 L124.6725,3.705 L124.6725,7.6275 L131.8425,7.6275 L131.8425,10.1625 L124.6725,10.1625 L124.6725,14.46 L132.75,14.46 L132.75,17.01 L121.8825,17.01 L121.8825,1.155 Z" id="Shape"></path>
        </g>
    </g>
</svg>

<svg width="133" height="18" xmlns="http://www.w3.org/2000/svg"><path d="M105.675 1.155h4.635c1.257-.03 2.514.07 3.75.3a8.062 8.062 0 0 1 2.445 1.02 7.043 7.043 0 0 1 1.853 1.732c.506.68.892 1.44 1.14 2.25a8.64 8.64 0 0 1 .382 2.588 7.987 7.987 0 0 1-.54 3 7.883 7.883 0 0 1-1.395 2.34 7.073 7.073 0 0 1-1.86 1.568c-.5.272-1.031.481-1.582.622-1.183.293-2.397.44-3.615.435h-5.25l.037-15.855zm2.843 13.305h1.882a9 9 0 0 0 3.39-.518A4.71 4.71 0 0 0 116.107 12a5.6 5.6 0 0 0 .788-3 5.385 5.385 0 0 0-.75-2.88 4.56 4.56 0 0 0-2.1-1.838 8.902 8.902 0 0 0-3.6-.6h-1.927V14.46zm-5.76-5.25a8.25 8.25 0 0 1-.818 3.6A7.867 7.867 0 0 1 99 16.215a8.43 8.43 0 0 1-4.575 1.192c-2.93 0-5.16-.98-6.69-2.94a8.423 8.423 0 0 1-1.8-5.347 8.745 8.745 0 0 1 .945-4.042 7.74 7.74 0 0 1 4.448-3.848A9.607 9.607 0 0 1 94.38.78a8.88 8.88 0 0 1 3.54.645c.972.4 1.85.998 2.58 1.755a8.468 8.468 0 0 1 1.672 2.602 9.09 9.09 0 0 1 .578 3.443l.007-.015zm-2.948-.038a6.345 6.345 0 0 0-.705-3A4.882 4.882 0 0 0 97.08 4.11a5.798 5.798 0 0 0-2.782-.75 5.475 5.475 0 0 0-2.723.75 5.055 5.055 0 0 0-1.987 2.002 6 6 0 0 0-.706 2.925 6.293 6.293 0 0 0 .69 3 5.115 5.115 0 0 0 1.928 2.025 5.423 5.423 0 0 0 2.813.75 5.318 5.318 0 0 0 3.937-1.604 5.475 5.475 0 0 0 1.56-4.02v-.016zm-15.653-6l-2.25 1.883a3.892 3.892 0 0 0-1.5-1.117 4.62 4.62 0 0 0-1.882-.39 5.13 5.13 0 0 0-2.603.712 4.905 4.905 0 0 0-1.92 2.025 6.255 6.255 0 0 0-.682 2.932c-.018.98.209 1.95.66 2.82a4.688 4.688 0 0 0 1.912 1.928c.805.451 1.71.689 2.633.69a4.125 4.125 0 0 0 3.578-1.845l2.46 1.777a6.487 6.487 0 0 1-2.393 2.01 7.5 7.5 0 0 1-3.48.75 8.19 8.19 0 0 1-4.672-1.267 7.98 7.98 0 0 1-2.858-3.33 8.542 8.542 0 0 1-.817-3.705 8.377 8.377 0 0 1 1.094-4.237 7.672 7.672 0 0 1 2.933-2.933A8.4 8.4 0 0 1 78.57.84a8.175 8.175 0 0 1 2.61.382c.69.217 1.343.538 1.935.953.391.283.742.619 1.043.998zm-16.11-.75L66 4.5c-.3-.413-.703-.74-1.17-.945a3.75 3.75 0 0 0-1.545-.308 3 3 0 0 0-2.017.608 1.875 1.875 0 0 0-.706 1.5c-.006.353.099.7.3.99.243.326.566.585.938.75.33.15 1.013.397 2.063.75.755.22 1.488.512 2.19.87.633.36 1.165.877 1.544 1.5.402.68.6 1.46.57 2.25a4.665 4.665 0 0 1-1.5 3.578 6.217 6.217 0 0 1-4.35 1.41 7.275 7.275 0 0 1-3-.57 6.195 6.195 0 0 1-2.145-1.5l2.116-2.048a3.81 3.81 0 0 0 3.172 1.642 2.955 2.955 0 0 0 2.04-.727c.462-.363.737-.913.75-1.5.008-.376-.1-.745-.308-1.057a2.07 2.07 0 0 0-.84-.713c-.217-.105-.84-.33-1.86-.675-1.02-.345-1.702-.6-2.024-.75a5.003 5.003 0 0 1-1.426-.975 3.915 3.915 0 0 1-.84-1.298 4.373 4.373 0 0 1-.3-1.612 4.418 4.418 0 0 1 1.245-3.15A5.94 5.94 0 0 1 63.444.75a7.14 7.14 0 0 1 2.617.442 6.135 6.135 0 0 1 1.987 1.26v-.03zm-13.027 0L52.987 4.5a2.864 2.864 0 0 0-1.17-.945 3.75 3.75 0 0 0-1.567-.285 3 3 0 0 0-2.017.607 1.875 1.875 0 0 0-.705 1.5c-.007.354.098.7.3.99.242.327.565.585.937.75.33.15 1.013.398 2.063.75.755.221 1.488.512 2.19.87a4.301 4.301 0 0 1 1.544 1.5c.402.68.6 1.461.57 2.25a4.635 4.635 0 0 1-1.537 3.578 6.217 6.217 0 0 1-4.35 1.41 7.275 7.275 0 0 1-3-.57 6.195 6.195 0 0 1-2.145-1.5l2.115-2.047A3.817 3.817 0 0 0 49.387 15a3 3 0 0 0 2.026-.652 1.98 1.98 0 0 0 .75-1.5c.007-.376-.1-.745-.308-1.058a2.092 2.092 0 0 0-.832-.712c-.226-.105-.84-.33-1.868-.675-1.028-.346-1.703-.6-2.025-.75a5.003 5.003 0 0 1-1.425-.976 3.915 3.915 0 0 1-.84-1.297 4.373 4.373 0 0 1-.3-1.612 4.418 4.418 0 0 1 1.245-3.15A5.94 5.94 0 0 1 50.415.75a7.14 7.14 0 0 1 2.617.442 6.052 6.052 0 0 1 1.988 1.26v-.03zM31.372 1.155h10.5v2.55h-7.71v3.923h7.17v2.534h-7.17v4.298h8.07v2.55h-10.86V1.155zM19.988 10.32v6.69h-2.843V1.155h5.145a15.06 15.06 0 0 1 2.625.18 4.86 4.86 0 0 1 1.823.75 3.803 3.803 0 0 1 1.297 1.5 4.8 4.8 0 0 1 .465 2.122 4.733 4.733 0 0 1-.48 2.176 3.69 3.69 0 0 1-1.387 1.5 4.86 4.86 0 0 1-1.74.622l4.215 6.975h-3.405l-3.653-6.66h-2.063zm0-2.445h1.814c.72.027 1.441-.016 2.153-.128a2.25 2.25 0 0 0 1.193-.75 1.98 1.98 0 0 0 .42-1.29 2.018 2.018 0 0 0-.398-1.252 2.115 2.115 0 0 0-1.125-.75 6.75 6.75 0 0 0-1.748-.158h-2.31v4.328zM0 1.155h4.643a18 18 0 0 1 3.75.3c.868.2 1.697.546 2.452 1.02.72.46 1.35 1.047 1.86 1.732.507.68.892 1.44 1.14 2.25a8.88 8.88 0 0 1 .375 2.588 8.017 8.017 0 0 1-1.928 5.332 7.095 7.095 0 0 1-1.867 1.568 6.9 6.9 0 0 1-1.575.622 14.798 14.798 0 0 1-3.6.443H0V1.155zM2.842 14.46h1.89a8.94 8.94 0 0 0 3.383-.518A4.733 4.733 0 0 0 10.44 12c.527-.91.787-1.95.75-3a5.385 5.385 0 0 0-.75-2.88 4.575 4.575 0 0 0-2.092-1.838 8.917 8.917 0 0 0-3.608-.6H2.842V14.46zm119.04-13.305h10.5v2.55h-7.71v3.923h7.17v2.534h-7.17v4.298h8.078v2.55h-10.868V1.155z" fill="#000105"/></svg>
